remix/Device/base-station-fill.svg

<svg viewBox="0 0 24 24" fill="currentColor" xmlns="http://www.w3.org/2000/svg"><path d="M12 13L18 22H6L12 13ZM10.9393 10.5606C10.3536 9.97486 10.3536 9.02511 10.9393 8.43933C11.5251 7.85354 12.4749 7.85354 13.0607 8.43933C13.6464 9.02511 13.6464 9.97486 13.0607 10.5606C12.4749 11.1464 11.5251 11.1464 10.9393 10.5606ZM5.28249 2.78247L6.6967 4.19668C3.76777 7.12562 3.76777 11.8744 6.6967 14.8033L5.28249 16.2175C1.5725 12.5075 1.5725 6.49245 5.28249 2.78247ZM18.7175 2.78247C22.4275 6.49245 22.4275 12.5075 18.7175 16.2175L17.3033 14.8033C20.2322 11.8744 20.2322 7.12562 17.3033 4.19668L18.7175 2.78247ZM8.11091 5.6109L9.52513 7.02511C8.15829 8.39195 8.15829 10.608 9.52513 11.9749L8.11091 13.3891C5.96303 11.2412 5.96303 7.75878 8.11091 5.6109H8.11091ZM15.8891 5.6109C18.037 7.75878 18.037 11.2412 15.8891 13.3891L14.4749 11.9749C15.8417 10.608 15.8417 8.39195 14.4749 7.02511L15.8891 5.6109Z"/></svg>

<svg viewBox="0 0 24 24" xmlns="http://www.w3.org/2000/svg"><path fill="none" d="M0 0h24v24H0Z"/><path d="M12 13l6 9H6l6-9Zm-1.06-2.44h0c-.61-.57-.64-1.52-.08-2.12 .56-.61 1.51-.64 2.12-.08 .02.02.05.04.07.07v0c.56.6.53 1.55-.08 2.12 -.58.53-1.47.53-2.05 0ZM5.28 2.78L6.69 4.195l-.001 0c-2.93 2.92-2.93 7.67-.001 10.606l-1.415 1.41h0C1.55 12.5 1.55 6.48 5.26 2.77c0-.01 0-.01 0-.01Zm13.43 0v0c3.71 3.7 3.71 9.72 0 13.43 -.01 0-.01 0-.01 0l-1.42-1.42v0c2.92-2.93 2.92-7.68 0-10.61l1.41-1.42ZM8.1 5.6l1.41 1.41v0c-1.37 1.36-1.37 3.58-.01 4.94 0 0 0 0 0 0l-1.42 1.41v0c-2.15-2.15-2.15-5.64 0-7.78Zm7.77 0l-.001-.001c2.14 2.14 2.14 5.63 0 7.77l-1.42-1.42v0c1.36-1.37 1.36-3.59 0-4.95 -.01-.01-.01-.01-.01-.01l1.41-1.42Z"/></svg>
